X:0582
T:Auld Robin Gray.
M:C
L:1/8
Q:1/4=72 "Very Slow"
I: ||
Z:Jack Campin * www.campin.me.uk * 2009
K:E Minor
B>d|e>ged {c}B2A>G|d2A>B A2B>d|e>ged    B2AG |A2B2  g3a|
    bage     gedB |d>BAG A2B>d|e>ged {c}B2g>a|b2B>c B2|]

